; generated by Slic3r 1.2.9 on 2019-12-14 at 22:01:50

; Bumped infill / perimeter overlap from 15% to 20% as I've observed slight gaps between infill and inside perimeter on bolt holes and the like.

; external perimeters extrusion width = 0.40mm
; perimeters extrusion width = 0.67mm
; infill extrusion width = 0.67mm
; solid infill extrusion width = 0.67mm
; top infill extrusion width = 0.67mm
; support material extrusion width = 0.40mm

M107
M190 S50 ; set bed temperature
M104 S200 ; set temperature
G21 ; metric
G90 ; absolute
M82 ; extruder absolute
G29 C-0.8 Z0.3 ; offset off center -0.8mm z offset 0.3mm
G1 Z15 F{travel_speed}
G92 E0	; zero extruder
G1 F200 E3 ; preload extruder
G92 E0	; zero extruder
G1 F{travel_speed}
M117 Printing...
M109 S200 ; wait for temperature to be reached
G21 ; set units to millimeters
G90 ; use absolute coordinates
M82 ; use absolute distances for extrusion
G92 E0
G1 Z0.300 F7200.000
G1 E-4.50000 F2400.00000
G92 E0
G1 X-1.181 Y-14.412 F7200.000
G1 E4.50000 F2400.00000
G1 X28.897 Y-16.878 E6.57662 F1200.000
G1 X29.230 Y-16.891 E6.59952
G1 X37.434 Y-16.891 E7.16409
G1 X38.227 Y-16.813 E7.21890
G1 X38.621 Y-16.735 E7.24657 F1200.000
G1 X40.089 Y-16.127 E7.35585
G1 X40.421 Y-15.905 E7.38338
G1 X41.545 Y-14.781 E7.49269
G1 X41.767 Y-14.449 E7.52022
G1 X42.375 Y-12.981 E7.62951
G1 X42.453 Y-12.589 E7.65705
G1 X42.531 Y-11.794 E7.71198
G1 X42.531 Y7.692 E9.05283
G1 X42.509 Y8.118 E9.08217
G1 X42.397 Y9.184 E9.15597
G1 X42.220 Y10.016 E9.21447
G1 X41.889 Y11.036 E9.28824
G1 X41.542 Y11.814 E9.34684
G1 X41.006 Y12.742 E9.42061
G1 X40.506 Y13.430 E9.47915
G1 X39.794 Y14.221 E9.55239
G1 X39.156 Y14.797 E9.61148
G1 X38.289 Y15.427 E9.68525
G1 X37.552 Y15.852 E9.74382
G1 X36.572 Y16.288 E9.81759
G1 X35.554 Y16.590 E9.89071
G1 X33.969 Y16.841 E10.00111
G1 X33.332 Y16.891 E10.04507
G1 X-33.332 Y16.891 E14.63219
G1 X-33.757 Y16.869 E14.66150
G1 X-34.824 Y16.757 E14.73529
G1 X-35.656 Y16.580 E14.79384
G1 X-36.676 Y16.249 E14.86760
G1 X-37.453 Y15.903 E14.92616
G1 X-38.382 Y15.367 E14.99994
G1 X-39.070 Y14.866 E15.05851
G1 X-39.867 Y14.149 E15.13229
G1 X-40.436 Y13.516 E15.19083
G1 X-41.067 Y12.649 E15.26463
G1 X-41.492 Y11.912 E15.32318
G1 X-41.928 Y10.932 E15.39695
G1 X-42.230 Y9.914 E15.47007
G1 X-42.481 Y8.329 E15.58048
G1 X-42.531 Y7.692 E15.62443
G1 X-42.531 Y-2.564 E16.33014
G1 X-42.509 Y-2.990 E16.35947
G1 X-42.397 Y-4.056 E16.43325
G1 X-42.220 Y-4.888 E16.49178
G1 X-41.889 Y-5.908 E16.56554
G1 X-41.542 Y-6.686 E16.62414
G1 X-41.006 Y-7.614 E16.69791
G1 X-40.506 Y-8.302 E16.75645
G1 X-39.789 Y-9.099 E16.83024
G1 X-39.157 Y-9.668 E16.88877
G1 X-38.289 Y-10.299 E16.96256
G1 X-37.552 Y-10.724 E17.02113
G1 X-36.572 Y-11.160 E17.09490
G1 X-35.554 Y-11.462 E17.16802
G1 X-33.665 Y-11.750 E17.29949
G1 X-1.241 Y-14.407 E19.53802
G1 X-1.138 Y-13.878 F7200.000
G1 X28.941 Y-16.344 E21.61464 F1200.000
G1 X37.434 Y-16.356 E22.19908
G1 X38.123 Y-16.288 E22.24668
G1 X38.517 Y-16.210 E22.27433 F1200.000
G1 X39.791 Y-15.682 E22.36923
G1 X40.124 Y-15.459 E22.39677
G1 X41.099 Y-14.484 E22.49170
G1 X41.322 Y-14.151 E22.51923
G1 X41.850 Y-12.877 E22.61414
G1 X41.928 Y-12.484 E22.64168
G1 X41.996 Y-11.794 E22.68938
G1 X41.996 Y7.692 E24.03023
G1 X41.976 Y8.062 E24.05571
G1 X41.864 Y9.128 E24.12950
G1 X41.711 Y9.851 E24.18031
G1 X41.379 Y10.870 E24.25408
G1 X41.079 Y11.546 E24.30497
G1 X40.542 Y12.474 E24.37874
G1 X40.108 Y13.072 E24.42958
G1 X39.390 Y13.869 E24.50341
G1 X38.841 Y14.363 E24.55421
G1 X37.974 Y14.993 E24.62797
G1 X37.334 Y15.363 E24.67884
G1 X36.355 Y15.799 E24.75261
G1 X35.470 Y16.061 E24.81611
G1 X33.885 Y16.312 E24.92651
G1 X33.332 Y16.356 E24.96469
G1 X-33.332 Y16.356 E29.55181
G1 X-33.701 Y16.336 E29.57726
G1 X-34.768 Y16.224 E29.65105
G1 X-35.491 Y16.070 E29.70190
G1 X-36.510 Y15.739 E29.77566
G1 X-37.185 Y15.439 E29.82651
G1 X-38.114 Y14.903 E29.90029
G1 X-38.712 Y14.468 E29.95115
G1 X-39.509 Y13.751 E30.02493
G1 X-40.003 Y13.202 E30.07577
G1 X-40.634 Y12.334 E30.14957
G1 X-41.003 Y11.694 E30.20042
G1 X-41.439 Y10.715 E30.27418
G1 X-41.701 Y9.830 E30.33768
G1 X-41.952 Y8.245 E30.44809
G1 X-41.996 Y7.692 E30.48626
G1 X-41.996 Y-2.564 E31.19197
G1 X-41.976 Y-2.934 E31.21744
G1 X-41.864 Y-4.000 E31.29121
G1 X-41.711 Y-4.723 E31.34205
G1 X-41.379 Y-5.742 E31.41581
G1 X-41.079 Y-6.418 E31.46670
G1 X-40.542 Y-7.346 E31.54047
G1 X-40.108 Y-7.944 E31.59131
G1 X-39.391 Y-8.741 E31.66510
G1 X-38.842 Y-9.235 E31.71592
G1 X-37.974 Y-9.865 E31.78971
G1 X-37.334 Y-10.235 E31.84058
G1 X-36.355 Y-10.671 E31.91435
G1 X-35.470 Y-10.933 E31.97784
G1 X-33.621 Y-11.216 E32.10655
G1 X-1.197 Y-13.873 E34.34507
G1 E29.84507 F2400.00000
G92 E0
G1 X-1.138 Y-10.102 F7200.000
G1 E4.50000 F2400.00000
G1 X25.480 Y-10.102 E6.33154 F1200.000
G1 X25.794 Y-10.416 E6.36207
G1 X25.794 Y-11.913 E6.46507
G1 X25.817 Y-12.149 E6.48137
G1 X25.964 Y-12.890 E6.53339
G1 X26.146 Y-13.329 E6.56605
G1 X26.632 Y-14.056 E6.62627
G1 X26.968 Y-14.392 E6.65897
G1 X27.695 Y-14.878 E6.71910
G1 X28.133 Y-15.059 E6.75173
G1 X28.875 Y-15.207 E6.80381
G1 X29.111 Y-15.230 E6.82011
G1 X37.553 Y-15.230 E7.40096
G1 X37.788 Y-15.207 E7.41722
G1 X38.530 Y-15.059 E7.46931 F1200.000
G1 X38.969 Y-14.878 E7.50201
G1 X39.696 Y-14.392 E7.56216
G1 X40.032 Y-14.056 E7.59483
G1 X40.517 Y-13.331 E7.65485
G1 X40.699 Y-12.891 E7.68764
G1 X40.847 Y-12.149 E7.73971
G1 X40.870 Y-11.913 E7.75602
G1 X40.864 Y7.881 E9.11804
G1 X40.732 Y9.136 E9.20486
G1 X40.679 Y9.383 E9.22222
G1 X40.270 Y10.642 E9.31331
G1 X40.167 Y10.873 E9.33074
G1 X39.505 Y12.020 E9.42185
G1 X39.357 Y12.225 E9.43927
G1 X38.470 Y13.210 E9.53048
G1 X38.282 Y13.379 E9.54785
G1 X37.210 Y14.157 E9.63899
G1 X36.991 Y14.284 E9.65639
G1 X35.753 Y14.835 E9.74969
G1 X35.450 Y14.925 E9.77143
G1 X33.616 Y15.215 E9.89921
G1 X33.427 Y15.230 E9.91225
G1 X-33.395 Y15.230 E14.51022
G1 X-34.776 Y15.092 E14.60571
G1 X-35.023 Y15.039 E14.62310
G1 X-36.283 Y14.630 E14.71423
G1 X-36.514 Y14.527 E14.73162
G1 X-37.661 Y13.865 E14.82277
G1 X-37.965 Y13.626 E14.84942
G1 X-38.850 Y12.830 E14.93127
G1 X-39.018 Y12.642 E14.94865
G1 X-39.797 Y11.570 E15.03982
G1 X-39.924 Y11.352 E15.05720
G1 X-40.475 Y10.113 E15.15052
G1 X-40.565 Y9.810 E15.17226
G1 X-40.855 Y7.975 E15.30005
G1 X-40.870 Y7.787 E15.31308
G1 X-40.870 Y-2.627 E16.02965
G1 X-40.732 Y-4.008 E16.12513
G1 X-40.679 Y-4.255 E16.14250
G1 X-40.270 Y-5.515 E16.23365
G1 X-40.167 Y-5.746 E16.25104
G1 X-39.505 Y-6.893 E16.34219
G1 X-39.356 Y-7.097 E16.35957
G1 X-38.470 Y-8.082 E16.45073
G1 X-38.282 Y-8.251 E16.46810
G1 X-37.211 Y-9.029 E16.55926
G1 X-36.992 Y-9.156 E16.57665
G1 X-35.753 Y-9.707 E16.66998
G1 X-35.450 Y-9.797 E16.69172
G1 X-33.616 Y-10.087 E16.81950
G1 X-33.427 Y-10.102 E16.83253
G1 X-1.198 Y-10.102 E19.05020
G1 X-1.138 Y-9.567 F7200.000
G1 X26.016 Y-9.567 E20.91860 F1200.000
G1 X26.329 Y-9.880 E20.94913
G1 X26.329 Y-11.887 E21.08717
G1 X26.347 Y-12.070 E21.09985
G1 X26.479 Y-12.734 E21.14643
G1 X26.621 Y-13.075 E21.17183
G1 X27.048 Y-13.715 E21.22479
G1 X27.310 Y-13.976 E21.25022
G1 X27.949 Y-14.403 E21.30311
G1 X28.290 Y-14.544 E21.32849
G1 X28.954 Y-14.677 E21.37511
G1 X29.137 Y-14.695 E21.38779
G1 X37.526 Y-14.695 E21.96502
G1 X37.709 Y-14.677 E21.97767 F1200.000
G1 X38.374 Y-14.544 E22.02431
G1 X38.715 Y-14.403 E22.04974
G1 X39.355 Y-13.976 E22.10264
G1 X39.616 Y-13.715 E22.12805
G1 X40.042 Y-13.077 E22.18085
G1 X40.184 Y-12.734 E22.20635
G1 X40.317 Y-12.070 E22.25297
G1 X40.335 Y-11.887 E22.26565
G1 X40.330 Y7.839 E23.62297
G1 X40.202 Y9.052 E23.70689
G1 X40.161 Y9.244 E23.72040
G1 X39.770 Y10.450 E23.80764
G1 X39.689 Y10.630 E23.82119
G1 X39.055 Y11.728 E23.90845
G1 X38.940 Y11.887 E23.92200
G1 X38.090 Y12.831 E24.00933
G1 X37.944 Y12.962 E24.02284
G1 X36.918 Y13.707 E24.11012
G1 X36.748 Y13.806 E24.12366
G1 X35.567 Y14.332 E24.21262
G1 X35.331 Y14.401 E24.22952
G1 X33.406 Y14.695 E24.36355
G1 X-33.381 Y14.695 E28.95911
G1 X-34.692 Y14.562 E29.04978
G1 X-34.884 Y14.521 E29.06330
G1 X-36.090 Y14.129 E29.15057
G1 X-36.270 Y14.049 E29.16410
G1 X-37.369 Y13.415 E29.25138
G1 X-37.607 Y13.228 E29.27224
G1 X-38.470 Y12.451 E29.35217
G1 X-38.602 Y12.305 E29.36568
G1 X-39.347 Y11.278 E29.45298
G1 X-39.446 Y11.108 E29.46650
G1 X-39.972 Y9.927 E29.55548
G1 X-40.041 Y9.691 E29.57239
G1 X-40.335 Y7.766 E29.70642
G1 X-40.335 Y-2.613 E30.42057
G1 X-40.202 Y-3.924 E30.51123
G1 X-40.161 Y-4.116 E30.52474
G1 X-39.769 Y-5.322 E30.61202
G1 X-39.689 Y-5.502 E30.62555
G1 X-39.055 Y-6.601 E30.71284
G1 X-38.940 Y-6.760 E30.72636
G1 X-38.091 Y-7.702 E30.81365
G1 X-37.945 Y-7.834 E30.82716
G1 X-36.918 Y-8.579 E30.91446
G1 X-36.748 Y-8.678 E30.92798
G1 X-35.567 Y-9.204 E31.01696
G1 X-35.331 Y-9.273 E31.03387
G1 X-33.406 Y-9.567 E31.16790
G1 X-1.198 Y-9.567 E33.38412
G1 X-1.138 Y-9.031 F7200.000
G1 X26.551 Y-9.031 E35.28937 F1200.000
G1 X26.865 Y-9.345 E35.31990
G1 X26.865 Y-11.860 E35.49299
G1 X26.995 Y-12.578 E35.54315
G1 X27.095 Y-12.821 E35.56129
G1 X27.464 Y-13.373 E35.60698
G1 X27.651 Y-13.560 E35.62515
G1 X28.203 Y-13.928 E35.67080
G1 X28.446 Y-14.029 E35.68892
G1 X29.164 Y-14.159 E35.73911
G1 X37.500 Y-14.159 E36.31273
G1 X37.631 Y-14.146 E36.32176
G1 X38.218 Y-14.029 E36.36294 F1200.000
G1 X38.462 Y-13.928 E36.38110
G1 X39.013 Y-13.560 E36.42676
G1 X39.200 Y-13.373 E36.44491
G1 X39.568 Y-12.822 E36.49049
G1 X39.669 Y-12.578 E36.50871
G1 X39.786 Y-11.991 E36.54987
G1 X39.799 Y-11.860 E36.55893
G1 X39.795 Y7.797 E37.91155
G1 X39.672 Y8.968 E37.99256
G1 X39.643 Y9.105 E38.00221
G1 X39.269 Y10.258 E38.08560
G1 X39.211 Y10.386 E38.09528
G1 X38.605 Y11.436 E38.17869
G1 X38.523 Y11.550 E38.18836
G1 X37.711 Y12.451 E38.27182
G1 X37.607 Y12.545 E38.28147
G1 X36.626 Y13.258 E38.36489
G1 X36.505 Y13.328 E38.37456
G1 X35.381 Y13.828 E38.45918
G1 X35.213 Y13.878 E38.47125
G1 X33.385 Y14.159 E38.59853
G1 X-33.367 Y14.159 E43.19168
G1 X-34.608 Y14.032 E43.27752
G1 X-34.745 Y14.003 E43.28717
G1 X-35.898 Y13.628 E43.37059
G1 X-36.026 Y13.571 E43.38025
G1 X-37.076 Y12.965 E43.46367
G1 X-37.190 Y12.883 E43.47333
G1 X-38.091 Y12.071 E43.55676
G1 X-38.185 Y11.967 E43.56641
G1 X-38.851 Y11.050 E43.64441
G1 X-38.968 Y10.865 E43.65948
G1 X-39.468 Y9.741 E43.74411
G1 X-39.518 Y9.573 E43.75619
G1 X-39.799 Y7.745 E43.88347
G1 X-39.799 Y-2.599 E44.59521
G1 X-39.672 Y-3.840 E44.68104
G1 X-39.643 Y-3.977 E44.69069
G1 X-39.269 Y-5.130 E44.77411
G1 X-39.211 Y-5.259 E44.78378
G1 X-38.605 Y-6.308 E44.86720
G1 X-38.523 Y-6.422 E44.87686
G1 X-37.711 Y-7.323 E44.96029
G1 X-37.607 Y-7.417 E44.96994
G1 X-36.626 Y-8.130 E45.05337
G1 X-36.505 Y-8.200 E45.06303
G1 X-35.381 Y-8.700 E45.14766
G1 X-35.213 Y-8.750 E45.15974
G1 X-33.385 Y-9.031 E45.28701
G1 X-1.198 Y-9.031 E47.50179
G1 X-1.138 Y-8.495 F7200.000
G1 X27.087 Y-8.495 E49.44390 F1200.000
G1 X27.401 Y-8.809 E49.47443
G1 X27.401 Y-11.834 E49.68256
G1 X27.510 Y-12.421 E49.72366
G1 X27.570 Y-12.567 E49.73455
G1 X27.880 Y-13.032 E49.77298
G1 X27.992 Y-13.144 E49.78388
G1 X28.456 Y-13.454 E49.82228
G1 X28.602 Y-13.514 E49.83316
G1 X29.190 Y-13.623 E49.87428
G1 X37.474 Y-13.623 E50.44428
G1 X38.061 Y-13.514 E50.48540 F1200.000
G1 X38.208 Y-13.454 E50.49630
G1 X38.672 Y-13.144 E50.53470
G1 X38.784 Y-13.032 E50.54560
G1 X39.094 Y-12.568 E50.58396
G1 X39.154 Y-12.422 E50.59489
G1 X39.263 Y-11.834 E50.63601
G1 X39.261 Y7.755 E51.98392
G1 X39.125 Y8.966 E52.06780
G1 X38.768 Y10.066 E52.14734
G1 X38.106 Y11.212 E52.23844
G1 X37.332 Y12.072 E52.31802
G1 X36.334 Y12.808 E52.40334
G1 X35.195 Y13.324 E52.48939
G1 X35.094 Y13.354 E52.49664
G1 X33.364 Y13.623 E52.61716
G1 X-33.353 Y13.623 E57.20790
G1 X-34.606 Y13.485 E57.29467
G1 X-35.706 Y13.128 E57.37422
G1 X-36.784 Y12.515 E57.45955
G1 X-37.768 Y11.630 E57.55064
G1 X-38.490 Y10.621 E57.63597
G1 X-38.964 Y9.555 E57.71625
G1 X-38.994 Y9.454 E57.72350
G1 X-39.263 Y7.724 E57.84403
G1 X-39.263 Y-2.585 E58.55336
G1 X-39.143 Y-3.756 E58.63436
G1 X-38.734 Y-5.015 E58.72545
G1 X-38.106 Y-6.084 E58.81077
G1 X-37.270 Y-7.000 E58.89610
G1 X-36.261 Y-7.722 E58.98143
G1 X-35.195 Y-8.196 E59.06172
G1 X-35.094 Y-8.226 E59.06896
G1 X-33.364 Y-8.495 E59.18948
G1 X-1.198 Y-8.495 E61.40281
G1 X-1.138 Y-7.960 F7200.000
G1 X27.622 Y-7.960 E63.38178 F1200.000
G1 X27.936 Y-8.274 E63.41231
G1 X27.936 Y-11.808 E63.65548
G1 X28.025 Y-12.265 E63.68754
G1 X28.296 Y-12.690 E63.72227
G1 X28.710 Y-12.979 E63.75700
G1 X29.216 Y-13.088 E63.79262
G1 X37.474 Y-13.085 E64.36080
G1 X37.954 Y-12.979 E64.39464 F1200.000
G1 X38.368 Y-12.690 E64.42936
G1 X38.639 Y-12.265 E64.46409
G1 X38.728 Y-11.808 E64.49615
G1 X38.727 Y7.713 E65.83936
G1 X38.607 Y8.828 E65.91649
G1 X38.267 Y9.874 E65.99218
G1 X37.689 Y10.875 E66.07173
G1 X36.953 Y11.693 E66.14743
G1 X36.042 Y12.358 E66.22505
G1 X35.009 Y12.821 E66.30291
G1 X33.343 Y13.088 E66.41908
G1 X-33.339 Y13.088 E71.00740
G1 X-34.468 Y12.967 E71.08551
G1 X-35.514 Y12.627 E71.16120
G1 X-36.492 Y12.066 E71.23882
G1 X-37.332 Y11.313 E71.31644
G1 X-38.012 Y10.378 E71.39598
G1 X-38.471 Y9.336 E71.47432
G1 X-38.728 Y7.703 E71.58809
G1 X-38.728 Y-2.571 E72.29501
G1 X-38.613 Y-3.672 E72.37119
G1 X-38.267 Y-4.746 E72.44880
G1 X-37.689 Y-5.747 E72.52835
G1 X-36.932 Y-6.583 E72.60597
G1 X-36.018 Y-7.244 E72.68359
G1 X-34.976 Y-7.703 E72.76192
G1 X-33.343 Y-7.960 E72.87569
G1 X-1.198 Y-7.960 E75.08758
G1 E70.58758 F2400.00000
G92 E0
G1 X28.504 Y-7.392 F7200.000
G1 E4.50000 F2400.00000
G1 X28.504 Y-11.765 E4.80089 F1200.000
G1 X28.565 Y-12.070 E4.82229
G1 X28.720 Y-12.302 E4.84148
G1 X28.955 Y-12.459 E4.86095
G1 X29.259 Y-12.520 E4.88232
G1 X37.407 Y-12.520 E5.44298
G1 X37.710 Y-12.459 E5.46422
G1 X37.943 Y-12.303 E5.48354
G1 X38.099 Y-12.070 E5.50286
G1 X38.160 Y-11.765 E5.52426
G1 X38.160 Y7.676 E6.86199
G1 X38.053 Y8.695 E6.93251
G1 X37.741 Y9.655 E7.00193
G1 X37.237 Y10.529 E7.07136
G1 X36.561 Y11.279 E7.14079
G1 X35.745 Y11.872 E7.21022
G1 X34.831 Y12.279 E7.27910
G1 X33.308 Y12.520 E7.38515
G1 X-33.316 Y12.520 E11.96957
G1 X-34.335 Y12.413 E12.04008
G1 X-35.295 Y12.101 E12.10951
G1 X-36.169 Y11.597 E12.17894
G1 X-36.919 Y10.921 E12.24836
G1 X-37.507 Y10.112 E12.31721
G1 X-37.919 Y9.190 E12.38667
G1 X-38.160 Y7.668 E12.49271
G1 X-38.160 Y-2.548 E13.19572
G1 X-38.053 Y-3.567 E13.26623
G1 X-37.741 Y-4.527 E13.33566
G1 X-37.237 Y-5.401 E13.40509
G1 X-36.567 Y-6.144 E13.47393
G1 X-35.745 Y-6.744 E13.54395
G1 X-34.831 Y-7.151 E13.61281
G1 X-33.308 Y-7.392 E13.71886
G1 X28.444 Y-7.392 E17.96802
G1 X28.904 Y-7.392 F7200.000
G1 X29.040 Y-6.856 F7200.000
G1 X29.040 Y-11.712 E18.30214 F1200.000
G1 X29.069 Y-11.861 E18.31257
G1 X29.106 Y-11.916 E18.31714
G1 X29.164 Y-11.955 E18.32195
G1 X29.312 Y-11.984 E18.33232
G1 X37.354 Y-11.984 E18.88572
G1 X37.501 Y-11.955 E18.89599
G1 X37.557 Y-11.917 E18.90065
G1 X37.595 Y-11.861 E18.90531
G1 X37.624 Y-11.712 E18.91575
G1 X37.624 Y7.648 E20.24792
G1 X37.526 Y8.583 E20.31264
G1 X37.249 Y9.436 E20.37431
G1 X36.801 Y10.212 E20.43599
G1 X36.201 Y10.878 E20.49768
G1 X35.476 Y11.405 E20.55935
G1 X34.677 Y11.761 E20.61951
G1 X33.266 Y11.984 E20.71781
G1 X-33.288 Y11.984 E25.29739
G1 X-34.224 Y11.886 E25.36210
G1 X-35.076 Y11.609 E25.42378
G1 X-35.852 Y11.161 E25.48546
G1 X-36.518 Y10.561 E25.54714
G1 X-37.041 Y9.842 E25.60827
G1 X-37.401 Y9.037 E25.66901
G1 X-37.624 Y7.626 E25.76727
G1 X-37.624 Y-2.520 E26.46544
G1 X-37.526 Y-3.456 E26.53015
G1 X-37.249 Y-4.308 E26.59183
G1 X-36.801 Y-5.084 E26.65351
G1 X-36.206 Y-5.745 E26.71464
G1 X-35.475 Y-6.278 E26.77690
G1 X-34.677 Y-6.633 E26.83701
G1 X-33.266 Y-6.856 E26.93531
G1 X28.980 Y-6.856 E31.21842
G1 X29.575 Y-6.321 F7200.000
G1 X29.575 Y-11.449 E31.57128 F1200.000
G1 X37.089 Y-11.448 E32.08828
G1 X37.089 Y7.620 E33.40037
G1 X36.999 Y8.472 E33.45928
G1 X36.757 Y9.217 E33.51321
G1 X36.365 Y9.896 E33.56714
G1 X35.841 Y10.478 E33.62108
G1 X35.207 Y10.939 E33.67500
G1 X34.524 Y11.243 E33.72644
G1 X33.224 Y11.449 E33.81698
G1 X-33.260 Y11.449 E38.39173
G1 X-34.112 Y11.359 E38.45064
G1 X-34.857 Y11.117 E38.50457
G1 X-35.536 Y10.725 E38.55851
G1 X-36.118 Y10.201 E38.61243
G1 X-36.574 Y9.573 E38.66585
G1 X-36.883 Y8.883 E38.71786
G1 X-37.089 Y7.584 E38.80833
G1 X-37.089 Y-2.492 E39.50167
G1 X-36.999 Y-3.344 E39.56058
